src/assets/svg/source/clock.svg

<?xml version="1.0" encoding="UTF-8" standalone="no"?>
<svg
   xmlns:dc="http://purl.org/dc/elements/1.1/"
   xmlns:cc="http://creativecommons.org/ns#"
   xmlns:rdf="http://www.w3.org/1999/02/22-rdf-syntax-ns#"
   xmlns:svg="http://www.w3.org/2000/svg"
   xmlns="http://www.w3.org/2000/svg"
   xmlns:sodipodi="http://sodipodi.sourceforge.net/DTD/sodipodi-0.dtd"
   xmlns:inkscape="http://www.inkscape.org/namespaces/inkscape"
   width="50"
   height="50"
   viewBox="0 0 50 50"
   version="1.1"
   id="svg10191"
   sodipodi:docname="clock.svg"
   style="fill:none"
   inkscape:version="0.92.3 (2405546, 2018-03-11)">
  <metadata
     id="metadata10195">
    <rdf:RDF>
      <cc:Work
         rdf:about="">
        <dc:format>image/svg+xml</dc:format>
        <dc:type
           rdf:resource="http://purl.org/dc/dcmitype/StillImage" />
        <dc:title></dc:title>
      </cc:Work>
    </rdf:RDF>
  </metadata>
  <sodipodi:namedview
     pagecolor="#ffffff"
     bordercolor="#666666"
     borderopacity="1"
     objecttolerance="10"
     gridtolerance="10"
     guidetolerance="10"
     inkscape:pageopacity="0"
     inkscape:pageshadow="2"
     inkscape:window-width="1920"
     inkscape:window-height="1032"
     id="namedview10193"
     showgrid="false"
     fit-margin-top="0"
     fit-margin-left="0"
     fit-margin-right="0"
     fit-margin-bottom="0"
     inkscape:zoom="8.137931"
     inkscape:cx="2.8065276"
     inkscape:cy="22.584123"
     inkscape:window-x="0"
     inkscape:window-y="27"
     inkscape:window-maximized="1"
     inkscape:current-layer="svg10191" />
  <g
     id="g10151"
     transform="translate(-4)">
    <rect
       x="4"
       width="50"
       height="50"
       rx="3"
       id="rect10149"
       y="0"
       style="fill:#4d7962" />
  </g>
  <g
     id="g10157"
     transform="translate(-4)">
    <path
       d="m 29,10 c -8.2735,0 -15,6.7265 -15,15 0,8.2734 6.7265,15 15,15 8.2735,0 15,-6.7266 15,-15 0,-8.2735 -6.7265,-15 -15,-15 z m 0,1.8182 c 7.2909,0 13.1818,5.891 13.1818,13.1818 0,7.2908 -5.8909,13.1818 -13.1818,13.1818 -7.2909,0 -13.1818,-5.891 -13.1818,-13.1818 0,-7.2908 5.8909,-13.1818 13.1818,-13.1818 z m 0,3.6363 c -0.5021,0 -0.9091,0.407 -0.9091,0.9091 V 25 c 0,0.251 0.1054,0.4747 0.2699,0.6392 l 5.4545,5.4688 c 0.3551,0.355 0.9376,0.355 1.2927,0 0.355,-0.3551 0.355,-0.9376 0,-1.2926 l -5.1989,-5.1847 v -8.2671 c 0,-0.5021 -0.407,-0.9091 -0.9091,-0.9091 z"
       id="path10153"
       inkscape:connector-curvature="0"
       style="fill:#def4e8" />
    <path
       d="m 33.6383,31.2845 3e-4,2e-4 c 0.4526,0.4527 1.1935,0.4527 1.6461,0 v 0 c 0.4527,-0.4526 0.4527,-1.1935 0,-1.6461 l -2e-4,-2e-4 -5.1254,-5.1115 v -8.1633 c 0,-0.6401 -0.5189,-1.1591 -1.1591,-1.1591 -0.6402,0 -1.1591,0.519 -1.1591,1.1591 V 25 c 0,0.3236 0.1363,0.6091 0.3431,0.816 z M 29,9.75 c -8.4116,0 -15.25,6.8385 -15.25,15.25 0,8.4115 6.8384,15.25 15.25,15.25 8.4116,0 15.25,-6.8385 15.25,-15.25 C 44.25,16.5885 37.4116,9.75 29,9.75 Z m 0,2.3182 c 7.1528,0 12.9318,5.779 12.9318,12.9318 0,7.1527 -5.779,12.9318 -12.9318,12.9318 -7.1528,0 -12.9318,-5.7791 -12.9318,-12.9318 0,-7.1528 5.779,-12.9318 12.9318,-12.9318 z"
       id="path10155"
       inkscape:connector-curvature="0"
       style="stroke:#def4e8;stroke-width:0.5" />
  </g>
  <defs
     id="defs10189" />
</svg>

<svg width="58" height="58" viewBox="0 0 58 58" fill="none" xmlns="http://www.w3.org/2000/svg">
<g filter="url(#filter0_d)">
<rect x="4" width="50" height="50" rx="3" fill="#4D7962"/>
</g>
<g filter="url(#filter1_d)">
<path d="M29 10C20.7265 10 14 16.7265 14 25C14 33.2734 20.7265 40 29 40C37.2735 40 44 33.2734 44 25C44 16.7265 37.2735 10 29 10ZM29 11.8182C36.2909 11.8182 42.1818 17.7092 42.1818 25C42.1818 32.2908 36.2909 38.1818 29 38.1818C21.7091 38.1818 15.8182 32.2908 15.8182 25C15.8182 17.7092 21.7091 11.8182 29 11.8182ZM29 15.4545C28.4979 15.4545 28.0909 15.8615 28.0909 16.3636V25C28.0909 25.251 28.1963 25.4747 28.3608 25.6392L33.8153 31.108C34.1704 31.463 34.7529 31.463 35.108 31.108C35.463 30.7529 35.463 30.1704 35.108 29.8154L29.9091 24.6307V16.3636C29.9091 15.8615 29.5021 15.4545 29 15.4545Z" fill="#DEF4E8"/>
<path d="M33.6383 31.2845L33.6386 31.2847C34.0912 31.7374 34.8321 31.7374 35.2847 31.2847L35.2847 31.2847C35.7374 30.8321 35.7374 30.0912 35.2847 29.6386L35.2845 29.6384L30.1591 24.5269V16.3636C30.1591 15.7235 29.6402 15.2045 29 15.2045C28.3598 15.2045 27.8409 15.7235 27.8409 16.3636V25C27.8409 25.3236 27.9772 25.6091 28.184 25.816L33.6383 31.2845ZM29 9.75C20.5884 9.75 13.75 16.5885 13.75 25C13.75 33.4115 20.5884 40.25 29 40.25C37.4116 40.25 44.25 33.4115 44.25 25C44.25 16.5885 37.4116 9.75 29 9.75ZM29 12.0682C36.1528 12.0682 41.9318 17.8472 41.9318 25C41.9318 32.1527 36.1528 37.9318 29 37.9318C21.8472 37.9318 16.0682 32.1527 16.0682 25C16.0682 17.8472 21.8472 12.0682 29 12.0682Z" stroke="#DEF4E8" stroke-width="0.5"/>
</g>
<defs>
<filter id="filter0_d" x="0" y="0" width="58" height="58" filterUnits="userSpaceOnUse" color-interpolation-filters="sRGB">
<feFlood flood-opacity="0" result="BackgroundImageFix"/>
<feColorMatrix in="SourceAlpha" type="matrix" values="0 0 0 0 0 0 0 0 0 0 0 0 0 0 0 0 0 0 127 0"/>
<feOffset dy="4"/>
<feGaussianBlur stdDeviation="2"/>
<feColorMatrix type="matrix" values="0 0 0 0 0 0 0 0 0 0 0 0 0 0 0 0 0 0 0.25 0"/>
<feBlend mode="normal" in2="BackgroundImageFix" result="effect1_dropShadow"/>
<feBlend mode="normal" in="SourceGraphic" in2="effect1_dropShadow" result="shape"/>
</filter>
<filter id="filter1_d" x="9.5" y="9.5" width="39" height="39" filterUnits="userSpaceOnUse" color-interpolation-filters="sRGB">
<feFlood flood-opacity="0" result="BackgroundImageFix"/>
<feColorMatrix in="SourceAlpha" type="matrix" values="0 0 0 0 0 0 0 0 0 0 0 0 0 0 0 0 0 0 127 0"/>
<feOffset dy="4"/>
<feGaussianBlur stdDeviation="2"/>
<feColorMatrix type="matrix" values="0 0 0 0 0 0 0 0 0 0 0 0 0 0 0 0 0 0 0.25 0"/>
<feBlend mode="normal" in2="BackgroundImageFix" result="effect1_dropShadow"/>
<feBlend mode="normal" in="SourceGraphic" in2="effect1_dropShadow" result="shape"/>
</filter>
</defs>
</svg>
